flaticon/emoticons/sceptic-7.svg

<svg xmlns="http://www.w3.org/2000/svg" width="32" height="32" viewBox="0 0 24 24">
    <path d="M 10.984375 12.203125 C 10.984375 10.632812 9.707031 9.355469 8.136719 9.355469 C 6.566406 9.355469 5.289062 10.632812 5.289062 12.203125 C 5.289062 13.773438 6.566406 15.050781 8.136719 15.050781 C 9.707031 15.050781 10.984375 13.773438 10.984375 12.203125 Z M 8.136719 14.238281 C 7.015625 14.238281 6.101562 13.324219 6.101562 12.203125 C 6.101562 11.082031 7.015625 10.167969 8.136719 10.167969 C 9.257812 10.167969 10.167969 11.082031 10.167969 12.203125 C 10.167969 13.324219 9.257812 14.238281 8.136719 14.238281 Z M 8.136719 14.238281"/>
    <path d="M8.136719 11.390625C8.136719 11.839844 7.769531 12.203125 7.320312 12.203125 6.871094 12.203125 6.507812 11.839844 6.507812 11.390625 6.507812 10.941406 6.871094 10.578125 7.320312 10.578125 7.769531 10.578125 8.136719 10.941406 8.136719 11.390625zM15.457031 9.355469C13.886719 9.355469 12.609375 10.632812 12.609375 12.203125 12.609375 13.773438 13.886719 15.050781 15.457031 15.050781 17.027344 15.050781 18.304688 13.773438 18.304688 12.203125 18.304688 10.632812 17.027344 9.355469 15.457031 9.355469zM15.457031 14.238281C14.335938 14.238281 13.421875 13.324219 13.421875 12.203125 13.421875 11.082031 14.335938 10.167969 15.457031 10.167969 16.578125 10.167969 17.492188 11.082031 17.492188 12.203125 17.492188 13.324219 16.578125 14.238281 15.457031 14.238281zM15.457031 14.238281"/>
    <path d="M15.457031 11.390625C15.457031 11.839844 15.09375 12.203125 14.644531 12.203125 14.195312 12.203125 13.832031 11.839844 13.832031 11.390625 13.832031 10.941406 14.195312 10.578125 14.644531 10.578125 15.09375 10.578125 15.457031 10.941406 15.457031 11.390625zM13.921875 17.726562C12.066406 17.445312 9.5625 18.671875 8.214844 20.503906 8.082031 20.6875 8.121094 20.941406 8.300781 21.074219 8.375 21.125 8.457031 21.152344 8.542969 21.152344 8.667969 21.152344 8.789062 21.09375 8.871094 20.988281 10.035156 19.402344 12.25 18.304688 13.800781 18.53125 14.457031 18.628906 14.882812 18.953125 15.074219 19.496094 15.148438 19.707031 15.378906 19.820312 15.59375 19.746094 15.804688 19.671875 15.914062 19.441406 15.839844 19.226562 15.554688 18.402344 14.871094 17.871094 13.921875 17.726562zM13.921875 17.726562"/>
    <path d="M 12 0 C 6.054688 0 1.21875 4.835938 1.21875 10.78125 L 1.21875 15.246094 C 1.21875 15.25 1.21875 15.25 1.21875 15.25 C 1.21875 15.25 1.21875 15.253906 1.21875 15.253906 L 1.21875 20.746094 C 1.21875 21.867188 2.132812 22.78125 3.253906 22.78125 L 5.917969 22.78125 C 5.9375 22.789062 5.957031 22.796875 5.976562 22.804688 C 7.402344 23.476562 9.121094 23.878906 11.078125 23.976562 C 11.121094 23.976562 11.164062 23.980469 11.210938 23.980469 C 11.46875 23.992188 11.730469 24 12 24 C 12.269531 24 12.53125 23.992188 12.792969 23.980469 C 12.835938 23.980469 12.878906 23.976562 12.921875 23.976562 C 14.878906 23.878906 16.597656 23.476562 18.023438 22.804688 C 18.042969 22.796875 18.0625 22.789062 18.082031 22.78125 L 20.746094 22.78125 C 21.867188 22.78125 22.78125 21.867188 22.78125 20.746094 L 22.78125 10.78125 C 22.78125 4.835938 17.945312 0 12 0 Z M 17.894531 21.964844 L 17.8125 22.007812 C 16.660156 22.566406 15.289062 22.929688 13.777344 23.089844 C 13.667969 23.101562 13.558594 23.113281 13.445312 23.125 C 13.285156 23.136719 13.125 23.148438 12.960938 23.15625 C 12.648438 23.175781 12.328125 23.1875 12 23.1875 C 11.671875 23.1875 11.351562 23.175781 11.039062 23.15625 C 10.875 23.148438 10.714844 23.136719 10.554688 23.121094 C 10.445312 23.113281 10.332031 23.101562 10.222656 23.089844 C 8.714844 22.929688 7.339844 22.566406 6.191406 22.007812 L 6.105469 21.964844 L 6.070312 21.964844 C 3.476562 20.65625 2.035156 18.34375 2.035156 15.253906 C 2.035156 15.253906 2.035156 15.25 2.035156 15.25 C 2.035156 15.25 2.035156 15.25 2.035156 15.246094 C 2.039062 10.019531 6.425781 5.550781 11.796875 5.289062 L 12.183594 5.289062 C 17.578125 5.550781 21.964844 10.023438 21.964844 15.253906 C 21.964844 18.34375 20.523438 20.65625 17.929688 21.964844 Z M 3.253906 21.964844 C 2.582031 21.964844 2.035156 21.417969 2.035156 20.746094 L 2.035156 19.027344 C 2.597656 20.195312 3.441406 21.1875 4.535156 21.964844 Z M 21.964844 20.746094 C 21.964844 21.417969 21.417969 21.964844 20.746094 21.964844 L 19.464844 21.964844 C 20.558594 21.1875 21.402344 20.195312 21.964844 19.027344 Z M 12.203125 4.472656 L 11.777344 4.476562 C 7.390625 4.691406 3.625 7.492188 2.035156 11.28125 L 2.035156 10.78125 C 2.035156 5.285156 6.503906 0.8125 12 0.8125 C 17.496094 0.8125 21.964844 5.285156 21.964844 10.78125 L 21.964844 11.265625 C 20.371094 7.484375 16.601562 4.6875 12.203125 4.472656 Z M 12.203125 4.472656"/>
</svg>

<svg xmlns="http://www.w3.org/2000/svg" width="32" height="32" viewBox="0 0 24 24">
    <path d="M10.984 12.203a2.85 2.85 0 0 0-2.847-2.848 2.85 2.85 0 0 0-2.848 2.848 2.85 2.85 0 0 0 2.848 2.848 2.85 2.85 0 0 0 2.847-2.848zm-2.847 2.035a2.039 2.039 0 0 1-2.035-2.035c0-1.121.914-2.035 2.035-2.035a2.036 2.036 0 0 1 0 4.07zm0 0"/>
    <path d="M8.137 11.39a.815.815 0 0 1-1.63 0 .815.815 0 0 1 1.629 0zm0 0M15.457 9.355a2.85 2.85 0 0 0-2.848 2.848 2.85 2.85 0 0 0 2.848 2.848 2.85 2.85 0 0 0 2.848-2.848 2.85 2.85 0 0 0-2.848-2.848zm0 4.883a2.039 2.039 0 0 1-2.035-2.035c0-1.121.914-2.035 2.035-2.035s2.035.914 2.035 2.035a2.039 2.039 0 0 1-2.035 2.035zm0 0"/>
    <path d="M15.457 11.39a.812.812 0 1 1-1.624.002.812.812 0 0 1 1.624-.001zm0 0M13.922 17.727c-1.856-.282-4.36.945-5.707 2.777a.41.41 0 0 0 .086.57c.074.051.156.078.242.078a.416.416 0 0 0 .328-.164c1.164-1.586 3.379-2.683 4.93-2.457.656.098 1.082.422 1.273.965a.406.406 0 0 0 .766-.27c-.285-.824-.969-1.355-1.918-1.5zm0 0"/>
    <path d="M12 0C6.055 0 1.219 4.836 1.219 10.781v9.965c0 1.121.914 2.035 2.035 2.035h2.664l.059.024c1.425.672 3.144 1.074 5.101 1.172.043 0 .086.003.133.003.258.012.52.02.789.02.27 0 .531-.008.793-.02l.129-.003c1.957-.098 3.676-.5 5.101-1.172l.059-.024h2.664a2.039 2.039 0 0 0 2.035-2.035v-9.965C22.781 4.836 17.945 0 12 0zm5.895 21.965l-.082.043c-1.153.558-2.524.922-4.036 1.082l-.332.035c-.16.012-.32.023-.484.031a15.386 15.386 0 0 1-2.406-.035 9.536 9.536 0 0 1-.332-.031c-1.508-.16-2.883-.524-4.032-1.082l-.086-.043H6.07c-2.593-1.309-4.035-3.621-4.035-6.711v-.004-.004c.004-5.226 4.39-9.695 9.762-9.957h.387c5.394.262 9.78 4.734 9.78 9.965 0 3.09-1.44 5.402-4.034 6.71zm-14.641 0a1.22 1.22 0 0 1-1.219-1.219v-1.719a7.663 7.663 0 0 0 2.5 2.938zm18.71-1.219a1.22 1.22 0 0 1-1.218 1.219h-1.281a7.663 7.663 0 0 0 2.5-2.938zm-9.76-16.273l-.427.004c-4.386.214-8.152 3.015-9.742 6.804v-.5C2.035 5.285 6.504.812 12 .812c5.496 0 9.965 4.473 9.965 9.97v.484c-1.594-3.782-5.363-6.579-9.762-6.793zm0 0"/>
</svg>
